X: 22775
T: Langstrom's Pony
R: jig
M: 6/8
K: Amixolydian
|:g/f/ed cAA|EAA cAA|g/f/ed cAA|BGB dcB|
g/f/ed cAA|EAA cAA|faf gfe|dBG Bcd:|
|:cee dff|cee ecA|cee g2e|dBG Bcd|
cee dff|cee efg|faf gfe|dBG Bcd:|
|:Ace a3|ecA ecA|GBd g3|dBG Bcd|
eaf g2e|fed ecA|a2f gfe|dBG Bcd:|
|:AEA A2d|cAc ecA|AEA AB=c|BGB d^cB|
AEA A2d|cAc efg|faf gfe|dBG Bcd:|

